archdroid-icon-theme/Archdroid-DeepPurple/status/scalable/bluetooth-connected.svg

<svg fill="#673AB7" height="48" viewBox="0 0 48 48" width="48" xmlns="http://www.w3.org/2000/svg"><path d="m14 24-4-4-4 4 4 4zm21.41-8.59-11.41-11.41h-2v15.17l-9.17-9.17-2.83 2.83 11.17 11.17-11.17 11.17 2.83 2.83 9.17-9.17v15.17h2l11.41-11.41-8.58-8.59zm-9.41-3.75 3.76 3.76-3.76 3.75zm3.76 20.93-3.76 3.75v-7.52zm8.24-12.59-4 4 4 4 4-4z" fill="#673AB7"/></svg>

<svg fill="#673AB7" height="48" viewBox="0 0 48 48" width="48" xmlns="http://www.w3.org/2000/svg"><path d="M14 24l-4-4-4 4 4 4 4-4zm21.41-8.59L24 4h-2v15.17L12.83 10 10 12.83 21.17 24 10 35.17 12.83 38 22 28.83V44h2l11.41-11.41L26.83 24l8.58-8.59zM26 11.66l3.76 3.76L26 19.17v-7.51zm3.76 20.93L26 36.34v-7.52l3.76 3.77zM38 20l-4 4 4 4 4-4-4-4z"/></svg>
